svg/fluentui-system-icons/ic_fluent_gas_24_filled.svg

<svg width="24" height="24" viewBox="0 0 24 24" fill="none" xmlns="http://www.w3.org/2000/svg">
<path d="M13.1452 2.30648C13.2865 2.11382 13.5111 2 13.7501 2H18.2501C18.6643 2 19.0001 2.33579 19.0001 2.75V6.5C19.0001 6.54108 18.9967 6.5814 18.9904 6.62069C19.6067 7.12499 20 7.89156 20 8.75V19.25C20 20.7688 18.7688 22 17.25 22H6.75C5.23122 22 4 20.7688 4 19.25V8.75C4 7.23122 5.23122 6 6.75 6H7.5V5.75C7.5 4.7835 6.7165 4 5.75 4H4.75C4.33579 4 4 3.66421 4 3.25C4 2.83579 4.33579 2.5 4.75 2.5H5.75C7.54493 2.5 9 3.95507 9 5.75V6H10.4367L13.1452 2.30648ZM17.5001 3.5H14.1301L12.2968 6H17.25C17.3343 6 17.4177 6.00379 17.5001 6.01122V3.5ZM8.21967 10.2197C7.92678 10.5126 7.92678 10.9874 8.21967 11.2803L10.9393 14L8.21967 16.7197C7.92678 17.0126 7.92678 17.4874 8.21967 17.7803C8.51256 18.0732 8.98744 18.0732 9.28033 17.7803L12 15.0607L14.7197 17.7803C15.0126 18.0732 15.4874 18.0732 15.7803 17.7803C16.0732 17.4874 16.0732 17.0126 15.7803 16.7197L13.0607 14L15.7803 11.2803C16.0732 10.9874 16.0732 10.5126 15.7803 10.2197C15.4874 9.92678 15.0126 9.92678 14.7197 10.2197L12 12.9393L9.28033 10.2197C8.98744 9.92678 8.51256 9.92678 8.21967 10.2197Z" fill="#212121"/>
</svg>

<svg xmlns="http://www.w3.org/2000/svg" width="24" height="24"><path d="M13.145 2.306A.75.75 0 0 1 13.75 2h4.5a.75.75 0 0 1 .75.75V6.5a.762.762 0 0 1-.01.12A2.744 2.744 0 0 1 20 8.75v10.5A2.75 2.75 0 0 1 17.25 22H6.75A2.75 2.75 0 0 1 4 19.25V8.75A2.75 2.75 0 0 1 6.75 6h.75v-.25A1.75 1.75 0 0 0 5.75 4h-1a.75.75 0 0 1 0-1.5h1A3.25 3.25 0 0 1 9 5.75V6h1.437l2.708-3.694ZM17.5 3.5h-3.37L12.297 6h4.953c.084 0 .168.004.25.011V3.5Zm-9.28 6.72a.75.75 0 0 0 0 1.06L10.94 14l-2.72 2.72a.75.75 0 1 0 1.06 1.06L12 15.06l2.72 2.72a.75.75 0 1 0 1.06-1.06L13.06 14l2.72-2.72a.75.75 0 1 0-1.06-1.06L12 12.94l-2.72-2.72a.75.75 0 0 0-1.06 0Z"/></svg>
